X:19050
T:Xiraldilla (CT 306)
R:Xiraldilla
C:Tradicional
S:Msica Tradicional Asturiana, (C) Tello & Tito. Asturies, 2001.
S:http://pagina.de/MusTradAst <telloytito@asturies.org>
N:Xiraldilla, dictada por Rosario Muiz Martnez, de veinticinco aos, de Llamo, ayuntamiento de Riosa.
O:Llamo (Riosa)
A:Asturies
Z:Cancioneru de Torner 306
M:2/4
L:1/8
Q:1/4=160
W:Madre quiero caserme,
W:no encuentro novia
W:y ahora encontr
W:una muy guapetona.
W:
W:Calza rico zapato;
W:viste a la moda;
W:gasta medias de seda
W:como seora.
K:G
|d2 dd|e2 fe|d3 d|e2 fe|d2 z2|
B2 BA|B2 dc|B3 A|G2 GF|G2 z2|
d2 dd|e2 fe|d3 d|e2 fe|d2 z2|
B2 BA|B2 dc|B3 A|G2 GF|G2 z2||
